symbolic/48x48/apps/deepin-appstore.svg

<svg xmlns="http://www.w3.org/2000/svg" width="48" height="48" version="1">
 <path fill="#b2bfd9" d="m17 4-2 2v4h-12v30c0 1.108 0.892 2 2 2h36c1.108 0 2-0.892 2-2v-30h-12v-4l-2-2zm0 2h12v4h-12z"/>
 <path opacity=".2" d="m17 6v1h12v-1h-12zm-14 34v1c0 1.108 0.892 2 2 2h36c1.108 0 2-0.892 2-2v-1c0 1.108-0.892 2-2 2h-36c-1.108 0-2-0.892-2-2z"/>
 <circle opacity=".2" cx="36" cy="37" r="11"/>
 <circle fill="#4ab3e4" cx="36" cy="36" r="11"/>
 <path fill="#fff" d="m38 29v5.0536h2.625l-4.625 6.946-4.625-7h2.625v-5h4zm-7 12h10v2h-10z"/>
 <path fill="#fff" opacity=".2" d="m17 4l-2 2v1l2-2h12l2 2v-1l-2-2h-12zm-14 6v1h12v-1h-12zm14 0v1h12v-1h-12zm14 0v1h12v-1h-12z"/>
</svg>

<svg xmlns="http://www.w3.org/2000/svg" width="48" height="48" version="1"><path fill="#b2bfd9" d="m17 4-2 2v4H3v30c0 1.108.892 2 2 2h36c1.108 0 2-.892 2-2V10H31V6l-2-2zm0 2h12v4H17z"/><path opacity=".2" d="M17 6v1h12V6H17zM3 40v1c0 1.108.892 2 2 2h36c1.108 0 2-.892 2-2v-1c0 1.108-.892 2-2 2H5c-1.108 0-2-.892-2-2z"/><circle opacity=".2" cx="36" cy="37" r="11"/><circle fill="#4ab3e4" cx="36" cy="36" r="11"/><path fill="#fff" d="M38 29v5.054h2.625L36 41l-4.625-7H34v-5h4zm-7 12h10v2H31z"/><path fill="#fff" opacity=".2" d="m17 4-2 2v1l2-2h12l2 2V6l-2-2H17zM3 10v1h12v-1H3zm14 0v1h12v-1H17zm14 0v1h12v-1H31z"/></svg>
